img/sponsors/logo-9.svg

<svg height="73" viewBox="0 0 294 73" width="294" xmlns="http://www.w3.org/2000/svg"><g fill="#fff" fill-rule="evenodd"><path d="m93.6726607 15.5068514v17.534181h21.9315393v-17.534181h6.065045v41.1047425h-6.065045v-17.534181h-21.9315393v17.534181h-6.0657145v-41.1047425z"/><path d="m132.949451 26.5160194v30.0955745h-6.409954v-30.0955745zm-.747415-13.7686428c.689819.6707313 1.034728 1.494763 1.034728 2.4720281 0 .958178-.344909 1.7726326-1.034728 2.4432969-.670396.6898854-1.49483 1.0347946-2.471961 1.0347946-.958379 0-1.772766-.3449092-2.443163-1.0347946-.689818-.6706643-1.034728-1.4851189-1.034728-2.4432969 0-.9772651.34491-1.8012968 1.034728-2.4720281.670397-.6898185 1.484784-1.0347947 2.443163-1.0347947.977131 0 1.801565.3449762 2.471961 1.0347947z"/><path d="m155.181028 25.7399401v6.5537443c-.574625-.0958379-1.149921-.1437233-1.724546-.1437233-2.184648 0-4.120159.6994625-5.80653 2.0983876-1.66695 1.3797039-2.711054 3.1235382-3.132982 5.2315029-.172119.8239648-.258514 1.600111-.258514 2.3283048v14.8034375h-6.438752v-14.860967c0-.9964863.04755-1.820451.143321-2.4720281.479524-3.8708863 2.184648-7.1094835 5.116712-9.7156579 2.970238-2.6253286 6.429376-3.9379929 10.376745-3.9379929.574625 0 1.149921.0383084 1.724546.1149921z"/><path d="m165.598627 26.5160194v30.0955745h-6.409954v-30.0955745zm-.747415-13.7686428c.690488.6707313 1.035397 1.494763 1.035397 2.4720281 0 .958178-.344909 1.7726326-1.035397 2.4432969-.670397.6898854-1.494161 1.0347946-2.471962 1.0347946-.957709 0-1.772096-.3449092-2.443163-1.0347946-.689818-.6706643-1.034727-1.4851189-1.034727-2.4432969 0-.9772651.344909-1.8012968 1.034727-2.4720281.671067-.6898185 1.485454-1.0347947 2.443163-1.0347947.977801 0 1.801565.3449762 2.471962 1.0347947z"/><path d="m196.181025 29.4192175c2.893889 2.4911824 4.637188 5.6147876 5.231235 9.3707487.134615.8240317.201588 2.2133127.201588 4.167977v13.6536507h-6.409954v-13.5961882c0-1.5330713-.086395-2.7115893-.259184-3.5355541-.421258-2.1079647-1.466032-3.851799-3.132981-5.2315029-1.686372-1.3989251-3.621882-2.0983876-5.806531-2.0983876-2.2034 0-4.148287.6994625-5.834659 2.0983876-1.667619 1.3797039-2.711723 3.1235382-3.133651 5.2315029-.153367.8239648-.229716 1.600111-.229716 2.3283048v14.8034375h-6.438752v-14.860967c0-.9964863.038174-1.820451.115193-2.4720281.498277-3.8708863 2.212777-7.1094835 5.14484-9.7156579 2.951486-2.6253286 6.409954-3.9379929 10.376745-3.9379929 3.852268 0 7.243764 1.2647789 10.175827 3.7942695z"/><path d="m231.079813 29.3904863c2.893219 2.4911823 4.637187 5.6052104 5.231235 9.3419504h-6.64034c-.555204-1.916289-1.638152-3.4876687-3.247505-4.7140721-1.629445-1.2456247-3.468514-1.8684035-5.519217-1.8684035-2.529558 0-4.685408.8910713-6.467551 2.673281-1.782143 1.7821427-2.673549 3.9284157-2.673549 6.4387522 0 2.5294907.891406 4.6853409 2.673549 6.4675505 1.782143 1.7821427 3.937993 2.673214 6.467551 2.673214 3.353321-.0191542 5.931099-1.3797709 7.731994-4.0817162.977801-1.4563876 1.466032-3.2769056 1.466032-5.461487h6.409954v16.4131255c0 4.3117003-1.522959 7.9909777-4.570215 11.0378992-3.046587 3.0469216-6.726065 4.5704158-11.037765 4.5704158-4.311701 0-8.000555-1.5234942-11.066564-4.5704158-3.047256-3.0469215-4.570215-6.7261989-4.570215-11.0378992v-.2586484h6.467551v.2586484c0 2.5295576.890736 4.6854078 2.672879 6.4675505 1.801565 1.8012968 3.966791 2.7020122 6.496349 2.7020122 2.433786 0 4.541416-.8431858 6.323559-2.5295576 1.76339-1.6863048 2.702347-3.746384 2.81687-6.1800368l.057597-.7186167v-3.1044511c-2.739852 1.9929727-5.806531 2.989459-9.198026 2.989459-4.311701 0-8.000555-1.5330713-11.066564-4.599147-3.047256-3.0469215-4.570215-6.726199-4.570215-11.0378993s1.522959-7.9909777 4.570215-11.0378992c3.066009-3.0660757 6.754863-4.5991471 11.066564-4.5991471 3.851598 0 7.243763 1.2552018 10.175827 3.7655383z"/><path d="m255.00111 12.6746443c2.241575-.5848723 3.569643-.865086 3.984204-.8407749.413891.0243781 1.011287.426482 1.790849 1.2063117.877342.877275 1.267123 1.9981965 1.170013 3.3628985-.097781.9259641-.328836 1.5474035-.694507 1.8641842-.365671.3167808-.767507.4507931-1.206178.4021039-.438671-.0487561-.902122.0730672-1.389013.3655368-.487561.2924027-.877342.8285189-1.170012 1.6083487-.146001.438604-.413891 1.1087325-.804342 2.0103855-.389781.901653-.681782 1.7423609-.877342 2.5221906-.194891.7797628-.389781 1.9007513-.584671 3.3628986-.097111 1.1696776-.316781 2.4490565-.657672 3.8380696-.341561 1.3890131-.706562 2.656203-1.097012 3.8015695-.389781 1.1452996-.767507 2.3149772-1.133178 3.5090999-.365001 1.1940557-.657671 2.2540991-.876672 3.1801301-.21967.9259641-.292671 1.778928-.21967 2.5586908.073.7798297.304725 1.3890131.694506 1.8276841.731342.7797628 1.048122 2.0225745.950342 3.7284354l-.219 2.4856235-4.605711.1462014c-3.070696.1462013-4.849491-.0853232-5.337052-.6945066-.487561-.6092503-.584671-1.2915679-.29267-2.0470196.29267-.7553847.853232-1.2793119 1.681684-1.5717815.682451-.2924027 1.096342-.877275 1.243012-1.7545499.146001-.877275.304726-2.0713307.474836-3.5822341.170781-1.5108364.597397-2.8998495 1.279848-4.1670393.925562-1.7057939 1.389013-2.8267824 1.389013-3.3628986 0-.2924027.060945-.5848723.182836-.877275.12122-.2924026.413891-1.1087994.876672-2.4490565.463451-1.3403239.963067-3.1801301 1.498848-5.5195523.926232-3.8990148 1.486793-6.20187 1.681684-6.9085655.19489-.7066956-.292671-1.3524461-1.462013-1.9373184-1.121123-.5848053-1.742629-1.1209215-1.86452-1.6083486-.12189-.4873601.182836-1.1940557.914177-2.1200868.779562-.9747202 2.339356-1.7545499 4.678711-2.3393552z"/><path d="m277.244742 21.5205281c.438671-.5361162.999232-.7310736 1.681684-.5848723.730671.1462014 1.023342 1.6814158.876672 4.6057104-.146001 2.9242275-.657672 5.5073633-1.535014 7.7492734-.438671 1.1209885-.791617 2.5100016-1.060177 4.1670393-.267891 1.6571047-.474836 3.131441-.620837 4.4229419-.14667 1.2915679-.34156 2.5100017-.585341 3.6553682-.24378 1.1452996-.633561 1.9616295-1.169343 2.4490565-.536451.4873601-1.267122.5848054-2.193354.2924027-.975122-.2924027-1.620739-1.0722324-1.93752-2.3394223-.31678-1.2671898-.206945-2.680581.328836-4.2401735 2.291135-6.1409248 3.436368-10.2105189 3.436368-12.2087824 0-1.0722324.304725-2.4734345.913507-4.2036064.609451-1.7301719 1.230958-2.9851727 1.864519-3.7649355zm-15.571815-1.7546169c.243781-1.5108364 1.973685-2.7536482 5.190382-3.7283684 3.216697-.9747872 6.701955-1.6083486 10.454433-1.9008182 3.753148-.2924027 7.225681-.414226 10.417599-.3655368 3.192587.0487561 4.983436.2680915 5.373217.6580064.536451.5361162.792286 1.3768241.768176 2.5221237-.02478 1.1453666-.329505 2.0835866-.914177 2.8145933-.340891.4874271-.694506.7676407-1.060177.8407749-.365671.0730672-.913507.012189-1.644849-.1827684-1.121122-.2924697-4.130204-.438671-9.028585-.438671s-9.491366.1462013-13.780296.438671c-3.655368.2924026-5.580832.2680246-5.775723-.0731342-.09711-.1462013-.09711-.3411588 0-.5848723z"/><path d="m38.7884928 0c7.0903963 0 12.8413392 6.28746099 12.8413392 14.0388775 0 7.7534257-5.7509429 14.0394803-12.8413392 14.0394803s-12.8406695-6.2860546-12.8406695-14.0394803c0-7.75141651 5.7502732-14.0388775 12.8406695-14.0388775"/><path d="m70.2710712 25.6308416c4.5461047 1.4867933 7.8538847 5.7790715 7.8538847 10.8060399v19.992011h-14.4012666v-19.1682472c0-1.5330043-.2216795-3.0278343-.6315522-4.4503337z"/><path d="m51.2575979 25.0791878c5.1100146 1.6743167 8.8276673 6.4996973 8.8276673 12.1488418v22.4787061h-42.593277v-22.4787061c0-5.6511536 3.7176528-10.4745251 8.8283371-12.1488418l8.151913 8.1505736c2.3741811 2.3755205 6.2585958 2.3755205 8.6334466 0z"/><path d="m50.9956678 29.741423-6.0583474 6.0576778c-3.3854684 3.3854683-8.9120529 3.3854683-12.2961818 0l-6.0583475-6.0576778c-2.6748883 1.5376925-4.4148382 4.4188566-4.4148382 7.5900124v17.7115917h33.2418835v-17.7115917c0-3.1711558-1.7399499-6.0523199-4.4141686-7.5900124"/><path d="m38.7884928 4.68138945c-4.9680325 0-8.3106383 4.6548013-8.3106383 9.35695225 0 4.7014813 3.3426058 9.3574211 8.3106383 9.3574211 4.9687022 0 8.311308-4.6572793 8.311308-9.3574211 0-4.70148122-3.3426058-9.35695225-8.311308-9.35695225"/><path d="m7.8538847 25.6308416c-4.54610466 1.4867933-7.8538847 5.7790715-7.8538847 10.8060399v19.992011h14.5169954v-19.1682472c0-1.499518.2116336-2.96488.6074421-4.3612601l-.0180826-.019422z"/><path d="m18.9452281 3.17383471c-6.3074858 0-11.4228581 5.59215075-11.4228581 12.48765659 0 6.3382932 4.3210765 11.5735466 9.9166429 12.3798976 1.8290235-2.6065763 4.4242144-4.6713436 7.5170121-5.8373377-1.2758293-2.5134842-1.9830606-5.3631712-1.9830606-8.2979135 0-3.0968162.7896077-6.09987056 2.2013915-8.71106789-1.7915188-1.27850822-3.9319653-2.0212351-6.2291278-2.0212351"/><path d="m59.1812012 3.17383471c6.3068161 0 11.4213847 5.59215075 11.4213847 12.48765659 0 6.2994491-4.2666946 11.5099226-9.8106921 12.3651636-1.8296932-2.599879-4.4222052-4.6586188-7.5083057-5.8226037 1.2751596-2.5134842 1.982391-5.3631712 1.982391-8.2979135 0-3.1195869-.798984-6.14407252-2.2315293-8.77067357 1.7761151-1.24100352 3.8830752-1.96162942 6.1467514-1.96162942"/><path d="m39.4229249 40.2235831 1.3930314 4.3237554 4.5434258-.0066973c.3194596 0 .5920384.1968997.6911579.4996161.0984499.3053954-.0053578.6261945-.2652117.8130482l-3.6821573 2.6621636 1.4117838 4.3190673c.0991196.3047256-.004688.6255247-.264542.8123784-.2585145.1888629-.5967265.1888629-.8545712 0l-3.668093-2.6795764-3.6727811 2.6755581c-.2578448.1875234-.5947173.1902023-.8545712.0026789-.2578448-.1895327-.3616524-.5103318-.2625329-.8150574l1.413793-4.3163884-3.6801481-2.6668516c-.257175-.186184-.3609826-.5076528-.2618631-.8117087.0991196-.3060651.3703589-.5016253.6904882-.5009556l4.5434258.0113854 1.3977195-4.3250949c.0991196-.3047256.3710286-.5016253.6904882-.5016253.3207991 0 .5920384.1982391.691158.5043042"/></g></svg>

<?xml version="1.0" encoding="UTF-8"?>
<svg width="294px" height="73px" viewBox="0 0 294 73" version="1.1" xmlns="http://www.w3.org/2000/svg" xmlns:xlink="http://www.w3.org/1999/xlink">
    <!-- Generator: Sketch 43.2 (39069) - http://www.bohemiancoding.com/sketch -->
    <title>logo-hiring-it</title>
    <desc>Created with Sketch.</desc>
    <defs></defs>
    <g id="Page-1" stroke="none" stroke-width="1" fill="none" fill-rule="evenodd">
        <g id="logo-hiring-it" fill="#FFFFFF">
            <g id="logo">
                <polygon id="Fill-1" points="93.6726607 15.5068514 93.6726607 33.0410324 115.6042 33.0410324 115.6042 15.5068514 121.669245 15.5068514 121.669245 56.6115939 115.6042 56.6115939 115.6042 39.0774129 93.6726607 39.0774129 93.6726607 56.6115939 87.6069462 56.6115939 87.6069462 15.5068514"></polygon>
                <path d="M132.949451,26.5160194 L132.949451,56.6115939 L126.539497,56.6115939 L126.539497,26.5160194 L132.949451,26.5160194 Z M132.202036,12.7473766 C132.891855,13.4181079 133.236764,14.2421396 133.236764,15.2194047 C133.236764,16.1775827 132.891855,16.9920373 132.202036,17.6627016 C131.53164,18.352587 130.707206,18.6974962 129.730075,18.6974962 C128.771696,18.6974962 127.957309,18.352587 127.286912,17.6627016 C126.597094,16.9920373 126.252184,16.1775827 126.252184,15.2194047 C126.252184,14.2421396 126.597094,13.4181079 127.286912,12.7473766 C127.957309,12.0575581 128.771696,11.7125819 129.730075,11.7125819 C130.707206,11.7125819 131.53164,12.0575581 132.202036,12.7473766 Z" id="Fill-2"></path>
                <path d="M155.181028,25.7399401 L155.181028,32.2936844 C154.606403,32.1978465 154.031107,32.1499611 153.456482,32.1499611 C151.271834,32.1499611 149.336323,32.8494236 147.649952,34.2483487 C145.983002,35.6280526 144.938898,37.3718869 144.51697,39.4798516 C144.344851,40.3038164 144.258456,41.0799626 144.258456,41.8081564 L144.258456,56.6115939 L137.819704,56.6115939 L137.819704,41.7506269 C137.819704,40.7541406 137.867254,39.9301759 137.963025,39.2785988 C138.442549,35.4077125 140.147673,32.1691153 143.079737,29.5629409 C146.049975,26.9376123 149.509113,25.624948 153.456482,25.624948 C154.031107,25.624948 154.606403,25.6632564 155.181028,25.7399401 Z" id="Fill-3"></path>
                <path d="M165.598627,26.5160194 L165.598627,56.6115939 L159.188673,56.6115939 L159.188673,26.5160194 L165.598627,26.5160194 Z M164.851212,12.7473766 C165.5417,13.4181079 165.886609,14.2421396 165.886609,15.2194047 C165.886609,16.1775827 165.5417,16.9920373 164.851212,17.6627016 C164.180815,18.352587 163.357051,18.6974962 162.37925,18.6974962 C161.421541,18.6974962 160.607154,18.352587 159.936087,17.6627016 C159.246269,16.9920373 158.90136,16.1775827 158.90136,15.2194047 C158.90136,14.2421396 159.246269,13.4181079 159.936087,12.7473766 C160.607154,12.0575581 161.421541,11.7125819 162.37925,11.7125819 C163.357051,11.7125819 164.180815,12.0575581 164.851212,12.7473766 Z" id="Fill-4"></path>
                <path d="M196.181025,29.4192175 C199.074914,31.9103999 200.818213,35.0340051 201.41226,38.7899662 C201.546875,39.6139979 201.613848,41.0032789 201.613848,42.9579432 L201.613848,56.6115939 L195.203894,56.6115939 L195.203894,43.0154057 C195.203894,41.4823344 195.117499,40.3038164 194.94471,39.4798516 C194.523452,37.3718869 193.478678,35.6280526 191.811729,34.2483487 C190.125357,32.8494236 188.189847,32.1499611 186.005198,32.1499611 C183.801798,32.1499611 181.856911,32.8494236 180.170539,34.2483487 C178.50292,35.6280526 177.458816,37.3718869 177.036888,39.4798516 C176.883521,40.3038164 176.807172,41.0799626 176.807172,41.8081564 L176.807172,56.6115939 L170.36842,56.6115939 L170.36842,41.7506269 C170.36842,40.7541406 170.406594,39.9301759 170.483613,39.2785988 C170.98189,35.4077125 172.69639,32.1691153 175.628453,29.5629409 C178.579939,26.9376123 182.038407,25.624948 186.005198,25.624948 C189.857466,25.624948 193.248962,26.8897269 196.181025,29.4192175 Z" id="Fill-5"></path>
                <path d="M231.079813,29.3904863 C233.973032,31.8816686 235.717,34.9956967 236.311048,38.7324367 L229.670708,38.7324367 C229.115504,36.8161477 228.032556,35.244768 226.423203,34.0183646 C224.793758,32.7727399 222.954689,32.1499611 220.903986,32.1499611 C218.374428,32.1499611 216.218578,33.0410324 214.436435,34.8232421 C212.654292,36.6053848 211.762886,38.7516578 211.762886,41.2619943 C211.762886,43.791485 212.654292,45.9473352 214.436435,47.7295448 C216.218578,49.5116875 218.374428,50.4027588 220.903986,50.4027588 C224.257307,50.3836046 226.835085,49.0229879 228.63598,46.3210426 C229.613781,44.864655 230.102012,43.044137 230.102012,40.8595556 L236.511966,40.8595556 L236.511966,57.2726811 C236.511966,61.5843814 234.989007,65.2636588 231.941751,68.3105803 C228.895164,71.3575019 225.215686,72.8809961 220.903986,72.8809961 C216.592285,72.8809961 212.903431,71.3575019 209.837422,68.3105803 C206.790166,65.2636588 205.267207,61.5843814 205.267207,57.2726811 L205.267207,57.0140327 L211.734758,57.0140327 L211.734758,57.2726811 C211.734758,59.8022387 212.625494,61.9580889 214.407637,63.7402316 C216.209202,65.5415284 218.374428,66.4422438 220.903986,66.4422438 C223.337772,66.4422438 225.445402,65.599058 227.227545,63.9126862 C228.990935,62.2263814 229.929892,60.1663022 230.044415,57.7326494 L230.102012,57.0140327 L230.102012,53.9095816 C227.36216,55.9025543 224.295481,56.8990406 220.903986,56.8990406 C216.592285,56.8990406 212.903431,55.3659693 209.837422,52.2998936 C206.790166,49.2529721 205.267207,45.5736946 205.267207,41.2619943 C205.267207,36.950294 206.790166,33.2710166 209.837422,30.2240951 C212.903431,27.1580194 216.592285,25.624948 220.903986,25.624948 C224.755584,25.624948 228.147749,26.8801498 231.079813,29.3904863 Z" id="Fill-6"></path>
                <path d="M255.00111,12.6746443 C257.242685,12.089772 258.570753,11.8095583 258.985314,11.8338694 C259.399205,11.8582475 259.996601,12.2603514 260.776163,13.0401811 C261.653505,13.9174561 262.043286,15.0383776 261.946176,16.4030796 C261.848395,17.3290437 261.61734,17.9504831 261.251669,18.2672638 C260.885998,18.5840446 260.484162,18.7180569 260.045491,18.6693677 C259.60682,18.6206116 259.143369,18.7424349 258.656478,19.0349045 C258.168917,19.3273072 257.779136,19.8634234 257.486466,20.6432532 C257.340465,21.0818572 257.072575,21.7519857 256.682124,22.6536387 C256.292343,23.5552917 256.000342,24.3959996 255.804782,25.1758293 C255.609891,25.9555921 255.415001,27.0765806 255.220111,28.5387279 C255.123,29.7084055 254.90333,30.9877844 254.562439,32.3767975 C254.220878,33.7658106 253.855877,35.0330005 253.465427,36.178367 C253.075646,37.3236666 252.69792,38.4933442 252.332249,39.6874669 C251.967248,40.8815226 251.674578,41.941566 251.455577,42.867597 C251.235907,43.7935611 251.162906,44.646525 251.235907,45.4262878 C251.308907,46.2061175 251.540632,46.8153009 251.930413,47.2539719 C252.661755,48.0337347 252.978535,49.2765464 252.880755,50.9824073 L252.661755,53.4680308 L248.056044,53.6142322 C244.985348,53.7604335 243.206553,53.528909 242.718992,52.9197256 C242.231431,52.3104753 242.134321,51.6281577 242.426322,50.872706 C242.718992,50.1173213 243.279554,49.5933941 244.108006,49.3009245 C244.790457,49.0085218 245.204348,48.4236495 245.351018,47.5463746 C245.497019,46.6690996 245.655744,45.4750439 245.825854,43.9641405 C245.996635,42.4533041 246.423251,41.064291 247.105702,39.7971012 C248.031264,38.0913073 248.494715,36.9703188 248.494715,36.4342026 C248.494715,36.1417999 248.55566,35.8493303 248.677551,35.5569276 C248.798771,35.264525 249.091442,34.4481282 249.554223,33.1078711 C250.017674,31.7675472 250.51729,29.927741 251.053071,27.5883188 C251.979303,23.689304 252.539864,21.3864488 252.734755,20.6797533 C252.929645,19.9730577 252.442084,19.3273072 251.272742,18.7424349 C250.151619,18.1576296 249.530113,17.6215134 249.408222,17.1340863 C249.286332,16.6467262 249.591058,15.9400306 250.322399,15.0139995 C251.101961,14.0392793 252.661755,13.2594496 255.00111,12.6746443 Z" id="Fill-7"></path>
                <path d="M277.244742,21.5205281 C277.683413,20.9844119 278.243974,20.7894545 278.926426,20.9356558 C279.657097,21.0818572 279.949768,22.6170716 279.803098,25.5413662 C279.657097,28.4655937 279.145426,31.0487295 278.268084,33.2906396 C277.829413,34.4116281 277.476467,35.8006412 277.207907,37.4576789 C276.940016,39.1147836 276.733071,40.5891199 276.58707,41.8806208 C276.4404,43.1721887 276.24551,44.3906225 276.001729,45.535989 C275.757949,46.6812886 275.368168,47.4976185 274.832386,47.9850455 C274.295935,48.4724056 273.565264,48.5698509 272.639032,48.2774482 C271.66391,47.9850455 271.018293,47.2052158 270.701512,45.9380259 C270.384732,44.6708361 270.494567,43.2574449 271.030348,41.6978524 C273.321483,35.5569276 274.466716,31.4873335 274.466716,29.48907 C274.466716,28.4168376 274.771441,27.0156355 275.380223,25.2854636 C275.989674,23.5552917 276.611181,22.3002909 277.244742,21.5205281 Z M261.672927,19.7659112 C261.916708,18.2550748 263.646612,17.012263 266.863309,16.0375428 C270.080006,15.0627556 273.565264,14.4291942 277.317742,14.1367246 C281.07089,13.8443219 284.543423,13.7224986 287.735341,13.7711878 C290.927928,13.8199439 292.718777,14.0392793 293.108558,14.4291942 C293.645009,14.9653104 293.900844,15.8060183 293.876734,16.9513179 C293.851954,18.0966845 293.547229,19.0349045 292.962557,19.7659112 C292.621666,20.2533383 292.268051,20.5335519 291.90238,20.6066861 C291.536709,20.6797533 290.988873,20.6188751 290.257531,20.4239177 C289.136409,20.131448 286.127327,19.9852467 281.228946,19.9852467 C276.330565,19.9852467 271.73758,20.131448 267.44865,20.4239177 C263.793282,20.7163203 261.867818,20.6919423 261.672927,20.3507835 C261.575817,20.2045822 261.575817,20.0096247 261.672927,19.7659112 Z" id="Fill-8"></path>
                <path d="M38.7884928,0 C45.8788891,0 51.629832,6.28746099 51.629832,14.0388775 C51.629832,21.7923032 45.8788891,28.0783578 38.7884928,28.0783578 C31.6980965,28.0783578 25.9478233,21.7923032 25.9478233,14.0388775 C25.9478233,6.28746099 31.6980965,0 38.7884928,0" id="Fill-9"></path>
                <path d="M70.2710712,25.6308416 C74.8171759,27.1176349 78.1249559,31.4099131 78.1249559,36.4368815 L78.1249559,56.4288925 L63.7236893,56.4288925 L63.7236893,37.2606453 C63.7236893,35.727641 63.5020098,34.232811 63.0921371,32.8103116 L70.2710712,25.6308416 Z" id="Fill-10"></path>
                <path d="M51.2575979,25.0791878 C56.3676125,26.7535045 60.0852652,31.5788851 60.0852652,37.2280296 L60.0852652,59.7067357 L17.4919882,59.7067357 L17.4919882,37.2280296 C17.4919882,31.576876 21.209641,26.7535045 26.3203253,25.0791878 L34.4722383,33.2297614 C36.8464194,35.6052819 40.7308341,35.6052819 43.1056849,33.2297614 L51.2575979,25.0791878 Z" id="Fill-11"></path>
                <path d="M50.9956678,29.741423 L44.9373204,35.7991008 C41.551852,39.1845691 36.0252675,39.1845691 32.6411386,35.7991008 L26.5827911,29.741423 C23.9079028,31.2791155 22.1679529,34.1602796 22.1679529,37.3314354 L22.1679529,55.0430271 L55.4098364,55.0430271 L55.4098364,37.3314354 C55.4098364,34.1602796 53.6698865,31.2791155 50.9956678,29.741423" id="Fill-12"></path>
                <path d="M38.7884928,4.68138945 C33.8204603,4.68138945 30.4778545,9.33619075 30.4778545,14.0383417 C30.4778545,18.739823 33.8204603,23.3957628 38.7884928,23.3957628 C43.757195,23.3957628 47.0998008,18.7384835 47.0998008,14.0383417 C47.0998008,9.33686048 43.757195,4.68138945 38.7884928,4.68138945" id="Fill-13"></path>
                <path d="M7.8538847,25.6308416 C3.30778004,27.1176349 0,31.4099131 0,36.4368815 L0,56.4288925 L14.5169954,56.4288925 L14.5169954,37.2606453 C14.5169954,35.7611273 14.728629,34.2957653 15.1244375,32.8993852 L15.1063549,32.8799632 L7.8538847,25.6308416 Z" id="Fill-14"></path>
                <path d="M18.9452281,3.17383471 C12.6377423,3.17383471 7.52237,8.76598546 7.52237,15.6614913 C7.52237,21.9997845 11.8434465,27.2350379 17.4390129,28.0413889 C19.2680364,25.4348126 21.8632273,23.3700453 24.956025,22.2040512 C23.6801957,19.690567 22.9729644,16.84088 22.9729644,13.9061377 C22.9729644,10.8093215 23.7625721,7.80626714 25.1743559,5.19506981 C23.3828371,3.91656159 21.2423906,3.17383471 18.9452281,3.17383471" id="Fill-15"></path>
                <path d="M59.1812012,3.17383471 C65.4880173,3.17383471 70.6025859,8.76598546 70.6025859,15.6614913 C70.6025859,21.9609404 66.3358913,27.1714139 60.7918938,28.0266549 C58.9622006,25.4267759 56.3696886,23.3680361 53.2835881,22.2040512 C54.5587477,19.690567 55.2659791,16.84088 55.2659791,13.9061377 C55.2659791,10.7865508 54.4669951,7.76206518 53.0344498,5.13546413 C54.8105649,3.89446061 56.917525,3.17383471 59.1812012,3.17383471" id="Fill-16"></path>
                <path d="M39.4229249,40.2235831 L40.8159563,44.5473385 L45.3593821,44.5406412 C45.6788417,44.5406412 45.9514205,44.7375409 46.05054,45.0402573 C46.1489899,45.3456527 46.0451822,45.6664518 45.7853283,45.8533055 L42.103171,48.5154691 L43.5149548,52.8345364 C43.6140744,53.139262 43.5102668,53.4600611 43.2504128,53.6469148 C42.9918983,53.8357777 42.6536863,53.8357777 42.3958416,53.6469148 L38.7277486,50.9673384 L35.0549675,53.6428965 C34.7971227,53.8304199 34.4602502,53.8330988 34.2003963,53.6455754 C33.9425515,53.4560427 33.8387439,53.1352436 33.9378634,52.830518 L35.3516564,48.5141296 L31.6715083,45.847278 C31.4143333,45.661094 31.3105257,45.3396252 31.4096452,45.0355693 C31.5087648,44.7295042 31.7800041,44.533944 32.1001334,44.5346137 L36.6435592,44.5459991 L38.0412787,40.2209042 C38.1403983,39.9161786 38.4123073,39.7192789 38.7317669,39.7192789 C39.052566,39.7192789 39.3238053,39.917518 39.4229249,40.2235831" id="Fill-17"></path>
            </g>
        </g>
    </g>
</svg>
